SVG_Azure_Grouped/Management/Cost.svg

<?xml version="1.0" encoding="UTF-8" standalone="no"?>
<!-- Generated by Microsoft Visio, SVG Export Cost.svg Page-1 -->

<svg
   xmlns:dc="http://purl.org/dc/elements/1.1/"
   xmlns:cc="http://creativecommons.org/ns#"
   xmlns:rdf="http://www.w3.org/1999/02/22-rdf-syntax-ns#"
   xmlns:svg="http://www.w3.org/2000/svg"
   xmlns="http://www.w3.org/2000/svg"
   xmlns:sodipodi="http://sodipodi.sourceforge.net/DTD/sodipodi-0.dtd"
   xmlns:inkscape="http://www.inkscape.org/namespaces/inkscape"
   width="0.78736252in"
   height="0.66933799in"
   viewBox="0 0 56.690189 48.192385"
   xml:space="preserve"
   class="st5"
   version="1.1"
   id="svg53"
   sodipodi:docname="Cost.svg"
   style="font-size:12px;overflow:visible;color-interpolation-filters:sRGB;fill:none;fill-rule:evenodd;stroke-linecap:square;stroke-miterlimit:3"
   inkscape:version="0.92.5 (2060ec1f9f, 2020-04-08)"><metadata
   id="metadata57"><rdf:RDF><cc:Work
       rdf:about=""><dc:format>image/svg+xml</dc:format><dc:type
         rdf:resource="http://purl.org/dc/dcmitype/StillImage" /></cc:Work></rdf:RDF></metadata><sodipodi:namedview
   pagecolor="#ffffff"
   bordercolor="#666666"
   borderopacity="1"
   objecttolerance="10"
   gridtolerance="10"
   guidetolerance="10"
   inkscape:pageopacity="0"
   inkscape:pageshadow="2"
   inkscape:window-width="640"
   inkscape:window-height="480"
   id="namedview55"
   showgrid="false"
   inkscape:zoom="1.472682"
   inkscape:cx="37.79527"
   inkscape:cy="32.127267"
   inkscape:window-x="0"
   inkscape:window-y="0"
   inkscape:window-maximized="0"
   inkscape:current-layer="svg53" />
	<style
   type="text/css"
   id="style2">
	<![CDATA[
		.st1 {fill:#0078d4;stroke:none;stroke-linecap:butt;stroke-width:36}
		.st2 {fill:url(#grad0-9);stroke:none;stroke-linecap:butt;stroke-width:36}
		.st3 {fill:#ffffff;stroke:none;stroke-linecap:butt;stroke-width:36}
		.st4 {fill:#e6e6e6;stroke:none;stroke-linecap:butt;stroke-width:36}
		.st5 {fill:none;fill-rule:evenodd;font-size:12px;overflow:visible;stroke-linecap:square;stroke-miterlimit:3}
	]]>
	</style>

	<defs
   id="Patterns_And_Gradients">
		<linearGradient
   id="grad0-9"
   x1="-7.5686968e-07"
   y1="107.03997"
   x2="40.124682"
   y2="107.03997"
   gradientTransform="scale(1.2244334,0.81670428)"
   gradientUnits="userSpaceOnUse">
			<stop
   offset="0.225"
   stop-color="#32d4f5"
   stop-opacity="1"
   id="stop4" />
			<stop
   offset="0.475"
   stop-color="#31d1f3"
   stop-opacity="1"
   id="stop6" />
			<stop
   offset="0.635"
   stop-color="#2ec9eb"
   stop-opacity="1"
   id="stop8" />
			<stop
   offset="0.77"
   stop-color="#29bade"
   stop-opacity="1"
   id="stop10" />
			<stop
   offset="0.89"
   stop-color="#22a5cb"
   stop-opacity="1"
   id="stop12" />
			<stop
   offset="1"
   stop-color="#198ab3"
   stop-opacity="1"
   id="stop14" />
			<stop
   offset="1"
   stop-color="#198ab3"
   stop-opacity="1"
   id="stop16" />
		</linearGradient>
	</defs>
	<g
   id="g51"
   transform="translate(-35.999995,-35.9976)">
		<title
   id="title20">Page-1</title>
		<g
   id="group12412-1"
   transform="translate(36,-36)">
			<title
   id="title22">Cost.12412</title>
			<g
   id="group12413-2">
				<title
   id="title24">Icon-nameAsset 7</title>
				<g
   id="group12414-3">
					<title
   id="title26">Sheet.12414</title>
					<g
   id="shape12415-4"
   transform="translate(0,-15.4224)">
						<title
   id="title28">Sheet.12415</title>
						<path
   d="m 49.13,116.34 a 3.77842,3.85389 0 0 1 -3.78,3.85 H 3.78 A 3.77842,3.85389 0 0 1 0,116.34 V 91.28 a 3.77842,3.85389 0 0 1 3.78,-3.86 h 41.57 a 3.77842,3.85389 0 0 1 3.78,3.86 z"
   class="st1"
   id="path30"
   inkscape:connector-curvature="0"
   style="fill:#0078d4;stroke:none;stroke-width:36;stroke-linecap:butt" />
					</g>
					<g
   id="shape12416-6"
   transform="translate(7.56017)">
						<title
   id="title33">Sheet.12416</title>
						<path
   d="m 49.13,116.33 a 3.78175,3.8573 0 0 1 -3.78,3.86 H 3.78 A 3.78175,3.8573 0 0 1 0,116.33 V 91.28 a 3.78175,3.8573 0 0 1 3.78,-3.86 h 41.57 a 3.78175,3.8573 0 0 1 3.78,3.86 z"
   class="st2"
   id="path35"
   inkscape:connector-curvature="0"
   style="fill:url(#grad0-9);stroke:none;stroke-width:36;stroke-linecap:butt" />
					</g>
					<g
   id="shape12417-10"
   transform="translate(13.2295,-5.78254)">
						<title
   id="title38">Sheet.12417</title>
						<path
   d="m 19.84,110.55 h 5.67 a 0.947105,0.966025 0 0 1 0.94377,0.96602 L 26.46,113.44 a 0.947105,0.966025 0 0 1 -0.94377,0.96602 L 19.84,114.41 a 0.947105,0.966025 0 0 1 -0.947105,-0.96603 L 18.9,111.52 a 0.947105,0.966025 0 0 1 0.947105,-0.96603 z m 9.45,0 h 5.67 a 0.947105,0.966025 0 0 1 0.94377,0.96602 L 35.9,113.44 a 0.947105,0.966025 0 0 1 -0.94377,0.96602 L 29.29,114.41 a 0.947105,0.966025 0 0 1 -0.94377,-0.96603 L 28.35,111.52 a 0.947105,0.966025 0 0 1 0.94377,-0.96603 z m -28.35,0 h 5.67 a 0.947105,0.966025 0 0 1 0.94377,0.96602 L 7.56,113.44 a 0.947105,0.966025 0 0 1 -0.94377,0.96602 L 0.94,114.41 a 0.947105,0.966025 0 0 1 -0.94377,-0.96603 L 0,111.52 a 0.947105,0.966025 0 0 1 0.94377,-0.96603 z m 0,7.71 h 13.23 a 0.94377,0.962623 0 0 1 0.94377,0.96262 0.947105,0.966025 0 0 1 -0.94377,0.96603 L 0.94,120.19 A 0.947105,0.966025 0 0 1 -0.00377,119.22397 0.94377,0.962623 0 0 1 0.94,118.26135 Z m 18.9,0 h 3.78 a 0.94377,0.962623 0 0 1 0.94377,0.96262 0.947105,0.966025 0 0 1 -0.94377,0.96603 l -3.78,0.001 A 0.947105,0.966025 0 0 1 18.892895,119.22397 0.947105,0.966025 0 0 1 19.84,118.26135 Z m -9.45,-7.71 h 5.67 a 0.947105,0.966025 0 0 1 0.947105,0.96602 L 17.01,113.44 a 0.947105,0.966025 0 0 1 -0.947105,0.96602 L 10.39,114.41 A 0.947105,0.966025 0 0 1 9.44623,113.44397 L 9.45,111.52 a 0.947105,0.966025 0 0 1 0.94377,-0.96603 z M 9.45,105.2 a 1.54071,1.57149 0 0 1 -1.61,1.5 H 1.6 A 1.54071,1.57149 0 0 1 0,105.2 v -4.29 c 0,-0.83 0.72,-1.93 1.6,-1.93 h 6.24 a 1.54405,1.57489 0 0 1 1.61,1.51 z"
   class="st3"
   id="path40"
   inkscape:connector-curvature="0"
   style="fill:#ffffff;stroke:none;stroke-width:36;stroke-linecap:butt" />
					</g>
					<g
   id="shape12418-12"
   transform="translate(0,-38.5525)">
						<title
   id="title43">Sheet.12418</title>
						<rect
   x="0"
   y="116.335"
   width="49.132702"
   height="3.8538899"
   class="st4"
   id="rect45"
   style="fill:#e6e6e6;stroke:none;stroke-width:36;stroke-linecap:butt" />
					</g>
				</g>
			</g>
		</g>
	</g>
</svg>

<?xml version="1.0" encoding="UTF-8" standalone="no"?>
<!DOCTYPE svg PUBLIC "-//W3C//DTD SVG 1.1//EN" "http://www.w3.org/Graphics/SVG/1.1/DTD/svg11.dtd">
<!-- Generated by Microsoft Visio, SVG Export Cost.svg Page-1 -->
<svg xmlns="http://www.w3.org/2000/svg" xmlns:xlink="http://www.w3.org/1999/xlink" xmlns:ev="http://www.w3.org/2001/xml-events"
		width="1.7874in" height="1.66929in" viewBox="0 0 128.693 120.189" xml:space="preserve" color-interpolation-filters="sRGB"
		class="st5">
	<style type="text/css">
	<![CDATA[
		.st1 {fill:#0078d4;stroke:none;stroke-linecap:butt;stroke-width:36}
		.st2 {fill:url(#grad0-9);stroke:none;stroke-linecap:butt;stroke-width:36}
		.st3 {fill:#ffffff;stroke:none;stroke-linecap:butt;stroke-width:36}
		.st4 {fill:#e6e6e6;stroke:none;stroke-linecap:butt;stroke-width:36}
		.st5 {fill:none;fill-rule:evenodd;font-size:12px;overflow:visible;stroke-linecap:square;stroke-miterlimit:3}
	]]>
	</style>

	<defs id="Patterns_And_Gradients">
		<linearGradient id="grad0-9" x1="0" y1="0" x2="1" y2="0" gradientTransform="rotate(90 0.5 0.5)">
			<stop offset="0.225" stop-color="#32d4f5" stop-opacity="1"/>
			<stop offset="0.475" stop-color="#31d1f3" stop-opacity="1"/>
			<stop offset="0.635" stop-color="#2ec9eb" stop-opacity="1"/>
			<stop offset="0.77" stop-color="#29bade" stop-opacity="1"/>
			<stop offset="0.89" stop-color="#22a5cb" stop-opacity="1"/>
			<stop offset="1" stop-color="#198ab3" stop-opacity="1"/>
			<stop offset="1" stop-color="#198ab3" stop-opacity="1"/>
		</linearGradient>
	</defs>
	<g>
		<title>Page-1</title>
		<g id="group12130-1" transform="translate(36,-36)">
			<title>Cost.12130</title>
			<g id="group12131-2">
				<title>Icon-nameAsset 7</title>
				<g id="group12132-3">
					<title>Sheet.12132</title>
					<g id="shape12133-4" transform="translate(-2.79776E-13,-15.4224)">
						<title>Sheet.12133</title>
						<path d="M49.13 116.34 A3.77842 3.85389 0 0 1 45.35 120.19 L3.78 120.19 A3.77842 3.85389 0 0 1 0 116.34 L0
									 91.28 A3.77842 3.85389 0 0 1 3.78 87.42 L45.35 87.42 A3.77842 3.85389 0 0 1 49.13 91.28 L49.13
									 116.34 Z" class="st1"/>
					</g>
					<g id="shape12134-6" transform="translate(7.56017,-2.27374E-13)">
						<title>Sheet.12134</title>
						<path d="M49.13 116.33 A3.78175 3.8573 0 0 1 45.35 120.19 L3.78 120.19 A3.78175 3.8573 0 0 1 0 116.33 L0
									 91.28 A3.78175 3.8573 0 0 1 3.78 87.42 L45.35 87.42 A3.78175 3.8573 0 0 1 49.13 91.28 L49.13
									 116.33 Z" class="st2"/>
					</g>
					<g id="shape12135-10" transform="translate(13.2295,-5.78254)">
						<title>Sheet.12135</title>
						<path d="M19.84 110.55 L25.51 110.55 a0.947105 0.966025 0 0 1 0.94377 0.966025 L26.46 113.44 a0.947105 0.966025
									 0 0 1 -0.94377 0.966025 L19.84 114.41 a0.947105 0.966025 0 0 1 -0.947105 -0.966025 L18.9 111.52
									 a0.947105 0.966025 0 0 1 0.947105 -0.966025 ZM29.29 110.55 L34.96 110.55 a0.947105 0.966025
									 0 0 1 0.94377 0.966025 L35.9 113.44 a0.947105 0.966025 0 0 1 -0.94377 0.966025 L29.29 114.41
									 a0.947105 0.966025 0 0 1 -0.94377 -0.966025 L28.35 111.52 a0.947105 0.966025 0 0 1 0.94377 -0.966025
									 ZM0.94 110.55 L6.61 110.55 a0.947105 0.966025 0 0 1 0.94377 0.966025 L7.56 113.44 a0.947105
									 0.966025 0 0 1 -0.94377 0.966025 L0.94 114.41 a0.947105 0.966025 0 0 1 -0.94377 -0.966025 L0
									 111.52 a0.947105 0.966025 0 0 1 0.94377 -0.966025 ZM0.94 118.26 L14.17 118.26 a0.94377 0.962623
									 0 0 1 0.94377 0.962623 a0.947105 0.966025 0 0 1 -0.94377 0.966025 L0.94 120.19 a0.947105 0.966025
									 0 0 1 -0.94377 -0.966025 a0.94377 0.962623 0 0 1 0.94377 -0.962623 ZM19.84 118.26 L23.62 118.26
									 a0.94377 0.962623 0 0 1 0.94377 0.962623 a0.947105 0.966025 0 0 1 -0.94377 0.966025 L19.84 120.19
									 a0.947105 0.966025 0 0 1 -0.947105 -0.966025 a0.947105 0.966025 0 0 1 0.947105 -0.962623 ZM10.39
									 110.55 L16.06 110.55 a0.947105 0.966025 0 0 1 0.947105 0.966025 L17.01 113.44 a0.947105 0.966025
									 0 0 1 -0.947105 0.966025 L10.39 114.41 a0.947105 0.966025 0 0 1 -0.94377 -0.966025 L9.45 111.52
									 a0.947105 0.966025 0 0 1 0.94377 -0.966025 ZM9.45 105.2 A1.54071 1.57149 0 0 1 7.84 106.7 L1.6
									 106.7 A1.54071 1.57149 0 0 1 -0 105.2 L0 100.91 C0 100.08 0.72 98.98 1.6 98.98 L7.84 98.98 A1.54405
									 1.57489 0 0 1 9.45 100.49 L9.45 105.2 Z" class="st3"/>
					</g>
					<g id="shape12136-12" transform="translate(-2.79776E-13,-38.5525)">
						<title>Sheet.12136</title>
						<rect x="0" y="116.335" width="49.1327" height="3.85389" class="st4"/>
					</g>
				</g>
			</g>
		</g>
	</g>
</svg>
